packages/katcn/src/icons/svg/perspective-solid.svg

<svg width="24" height="25" viewBox="0 0 24 25" fill="none" xmlns="http://www.w3.org/2000/svg">
<path d="M6.4 15.712V8.91201C7.4 8.61201 8.2 7.91201 8.6 6.91201L12.7 7.91201C12.8 7.91201 12.9 7.91201 12.9 7.91201C13.3 7.91201 13.8 7.61201 13.9 7.11201C14 6.61201 13.7 6.01201 13.2 5.91201L8.7 4.91201C8.3 3.41201 7 2.31201 5.4 2.31201C3.5 2.31201 2 3.81201 2 5.71201C2 7.21201 3 8.51201 4.4 8.91201V15.612C3 16.112 2 17.412 2 18.912C2 20.812 3.5 22.312 5.4 22.312C7.3 22.312 8.8 20.812 8.8 18.912C8.8 17.412 7.8 16.112 6.4 15.712Z" fill="black"/>
<path d="M19.6 13.612V11.012C21 10.612 22 9.31201 22 7.81201C22 5.91201 20.5 4.41201 18.6 4.41201C16.7 4.41201 15.2 5.91201 15.2 7.81201C15.2 9.31201 16.2 10.612 17.6 11.012V13.612C16.5 14.012 15.6 14.912 15.3 16.012L10.8 17.112C10.2 17.312 9.9 17.812 10 18.412C10.1 18.912 10.5 19.212 11 19.212C11.1 19.212 11.2 19.212 11.2 19.212L15.4 18.212C15.9 19.512 17.1 20.412 18.6 20.412C20.5 20.412 22 18.912 22 17.012C22 15.312 21 14.012 19.6 13.612Z" fill="black"/>
</svg>

<svg xmlns="http://www.w3.org/2000/svg" fill="none" viewBox="0 0 24 25"><path fill="#000" d="M6.4 15.712v-6.8c1-.3 1.8-1 2.2-2l4.1 1h.2c.4 0 .9-.3 1-.8s-.2-1.1-.7-1.2l-4.5-1c-.4-1.5-1.7-2.6-3.3-2.6-1.9 0-3.4 1.5-3.4 3.4 0 1.5 1 2.8 2.4 3.2v6.7c-1.4.5-2.4 1.8-2.4 3.3 0 1.9 1.5 3.4 3.4 3.4s3.4-1.5 3.4-3.4c0-1.5-1-2.8-2.4-3.2m13.2-2.1v-2.6c1.4-.4 2.4-1.7 2.4-3.2 0-1.9-1.5-3.4-3.4-3.4s-3.4 1.5-3.4 3.4c0 1.5 1 2.8 2.4 3.2v2.6c-1.1.4-2 1.3-2.3 2.4l-4.5 1.1c-.6.2-.9.7-.8 1.3.1.5.5.8 1 .8h.2l4.2-1c.5 1.3 1.7 2.2 3.2 2.2 1.9 0 3.4-1.5 3.4-3.4 0-1.7-1-3-2.4-3.4"/></svg>
